src/default/sw/res/emptypage_10x14.svg

<?xml version="1.0" encoding="UTF-8" standalone="no"?>
<svg
   viewBox="0 0 14 10"
   version="1.1"
   id="svg4"
   sodipodi:docname="emptypage_10x14.svg"
   inkscape:export-filename="/home/jupiter007/Libreoffice yaru theme fullcolor/build/sw/res/emptypage_10x14.png"
   inkscape:export-xdpi="95"
   inkscape:export-ydpi="95"
   inkscape:version="1.2 (1:1.2.1+202207142221+cd75a1ee6d)"
   xmlns:inkscape="http://www.inkscape.org/namespaces/inkscape"
   xmlns:sodipodi="http://sodipodi.sourceforge.net/DTD/sodipodi-0.dtd"
   xmlns="http://www.w3.org/2000/svg"
   xmlns:svg="http://www.w3.org/2000/svg"
   xmlns:rdf="http://www.w3.org/1999/02/22-rdf-syntax-ns#"
   xmlns:cc="http://creativecommons.org/ns#"
   xmlns:dc="http://purl.org/dc/elements/1.1/">
  <metadata
     id="metadata10">
    <rdf:RDF>
      <cc:Work
         rdf:about="">
        <dc:format>image/svg+xml</dc:format>
        <dc:type
           rdf:resource="http://purl.org/dc/dcmitype/StillImage" />
        <dc:title />
      </cc:Work>
    </rdf:RDF>
  </metadata>
  <defs
     id="defs8" />
  <sodipodi:namedview
     pagecolor="#ffffff"
     bordercolor="#666666"
     borderopacity="1"
     objecttolerance="10"
     gridtolerance="10"
     guidetolerance="10"
     inkscape:pageopacity="0"
     inkscape:pageshadow="2"
     inkscape:window-width="1920"
     inkscape:window-height="1043"
     id="namedview6"
     showgrid="true"
     inkscape:zoom="16"
     inkscape:cx="20.28125"
     inkscape:cy="16.25"
     inkscape:window-x="0"
     inkscape:window-y="0"
     inkscape:window-maximized="1"
     inkscape:current-layer="svg4"
     showborder="true"
     inkscape:showpageshadow="2"
     inkscape:pagecheckerboard="0"
     inkscape:deskcolor="#d1d1d1">
    <inkscape:grid
       type="xygrid"
       id="grid816" />
  </sodipodi:namedview>
  <path
     inkscape:connector-curvature="0"
     id="path821"
     d="m 4,1 h 3 l 3,3 v 5 h -6 z"
     style="fill:#ffffff;fill-opacity:1;stroke:none;stroke-width:1px;stroke-linecap:butt;stroke-linejoin:miter;stroke-opacity:1" />
  <path
     d="m 3,3.0000002 v 4 c 0,2.9999996 1,2.9999996 4,2.9999996 3,0 4,0 4,-2.9999996 v -3 -1 l -3,-3 h -1 c -3,0 -4,0 -4,3 z m 1,0 c 0,-2 1,-2 3,-2 v 2 1 h 1 2 v 3 c 0,2 -1,2 -3,2 -2,0 -3,0 -3,-2 z"
     id="path2"
     inkscape:connector-curvature="0"
     style="fill:#6d6d6d;fill-opacity:1"
     sodipodi:nodetypes="ccccccccccccccccccc" />
</svg>

<?xml version="1.0" encoding="UTF-8" standalone="no"?>
<svg
   xmlns:dc="http://purl.org/dc/elements/1.1/"
   xmlns:cc="http://creativecommons.org/ns#"
   xmlns:rdf="http://www.w3.org/1999/02/22-rdf-syntax-ns#"
   xmlns:svg="http://www.w3.org/2000/svg"
   xmlns="http://www.w3.org/2000/svg"
   xmlns:sodipodi="http://sodipodi.sourceforge.net/DTD/sodipodi-0.dtd"
   xmlns:inkscape="http://www.inkscape.org/namespaces/inkscape"
   viewBox="0 0 14 10"
   version="1.1"
   id="svg4"
   sodipodi:docname="emptypage_10x14.svg"
   inkscape:export-filename="/home/jupiter007/Libreoffice yaru theme fullcolor/build/sw/res/emptypage_10x14.png"
   inkscape:export-xdpi="95"
   inkscape:export-ydpi="95"
   inkscape:version="0.92.5 (2060ec1f9f, 2020-04-08)">
  <metadata
     id="metadata10">
    <rdf:RDF>
      <cc:Work
         rdf:about="">
        <dc:format>image/svg+xml</dc:format>
        <dc:type
           rdf:resource="http://purl.org/dc/dcmitype/StillImage" />
        <dc:title></dc:title>
      </cc:Work>
    </rdf:RDF>
  </metadata>
  <defs
     id="defs8" />
  <sodipodi:namedview
     pagecolor="#ffffff"
     bordercolor="#666666"
     borderopacity="1"
     objecttolerance="10"
     gridtolerance="10"
     guidetolerance="10"
     inkscape:pageopacity="0"
     inkscape:pageshadow="2"
     inkscape:window-width="1920"
     inkscape:window-height="1011"
     id="namedview6"
     showgrid="true"
     inkscape:zoom="16"
     inkscape:cx="20.233773"
     inkscape:cy="16.260122"
     inkscape:window-x="1920"
     inkscape:window-y="32"
     inkscape:window-maximized="1"
     inkscape:current-layer="svg4"
     showborder="true">
    <inkscape:grid
       type="xygrid"
       id="grid816" />
  </sodipodi:namedview>
  <path
     inkscape:connector-curvature="0"
     id="path821"
     d="m 4,1 h 3 l 3,3 V 9 H 4 Z"
     style="fill:#ffffff;fill-opacity:1;stroke:none;stroke-width:1px;stroke-linecap:butt;stroke-linejoin:miter;stroke-opacity:1" />
  <path
     d="m 3,3 v 4 c 0,3 1,3 4,3 3,0 4,0 4,-3 V 4 3 L 8,0 H 7 C 4,0 3,0 3,3 Z M 4,3 C 4,1 5,1 7,1 v 2 1 h 1 2 V 7 C 10,9 9,9 7,9 5,9 4,9 4,7 Z"
     id="path2"
     inkscape:connector-curvature="0"
     style="fill:#b3b3b3"
     sodipodi:nodetypes="ccccccccccccccccccc" />
</svg>
